binance.svg

<svg width="126" height="26" viewBox="0 0 126 26" fill="none" xmlns="http://www.w3.org/2000/svg">
<path d="M5.9206 13.1673L3.0989 15.9901L0.25 13.1673L3.0979 10.3195L5.9206 13.1673ZM12.8187 6.26923L17.6786 11.1291L20.5275 8.28233L12.8187 0.598633L5.1099 8.30743L7.9588 11.1543L12.8187 6.26923ZM22.5396 10.3195L19.7168 13.1673L22.5647 16.0152L25.4115 13.1673L22.5396 10.3195ZM12.8187 20.0655L7.9588 15.1804L5.1099 18.0283L12.8187 25.736L20.5275 18.0272L17.6786 15.1804L12.8187 20.0655ZM12.8187 15.9911L15.6666 13.1422L12.8187 10.3205L9.9708 13.1673L12.8187 15.9901V15.9911ZM42.7678 16.2844V16.2362C42.7678 14.3949 41.7854 13.4617 40.1902 12.8479C41.1716 12.3085 42.0064 11.4234 42.0064 9.87753V9.82933C42.0064 7.66853 40.2635 6.26923 37.4649 6.26923H31.058V20.0414H37.6126C40.7296 20.0655 42.7678 18.7887 42.7678 16.2854V16.2844ZM38.9868 10.3938C38.9868 11.4245 38.152 11.8413 36.8019 11.8413H34.0043V8.92023H36.9988C38.2756 8.92023 38.9868 9.43553 38.9868 10.3446V10.3938ZM39.7482 15.8927C39.7482 16.9233 38.9386 17.3904 37.6115 17.3904H34.0043V14.3697H37.5141C39.0611 14.3697 39.7482 14.9353 39.7482 15.8675V15.8927ZM49.1255 20.0655V6.26923H46.0818V20.0414H49.1255V20.0655ZM65.4261 20.0655V6.26923H62.4305V14.7636L55.9744 6.26923H53.1758V20.0414H56.1713V11.3019L62.8485 20.0655H65.425H65.4261ZM82.216 20.0655L76.3012 6.19593H73.5036L67.5869 20.0655H70.7049L71.9566 16.9725H77.7748L79.026 20.0655H82.218H82.216ZM76.6929 14.2964H73.0354L74.8767 9.82933L76.6929 14.2964ZM96.676 20.0655V6.26923H93.681V14.7636L87.224 6.26923H84.426V20.0414H87.421V11.3019L94.098 20.0655H96.675H96.676ZM112.313 17.8314L110.374 15.8927C109.293 16.8741 108.336 17.5119 106.74 17.5119C104.384 17.5119 102.739 15.5481 102.739 13.1914V13.1181C102.739 10.7615 104.408 8.82283 106.74 8.82283C108.115 8.82283 109.196 9.41143 110.275 10.3687L112.214 8.13463C110.938 6.88303 109.391 5.99903 106.79 5.99903C102.568 5.99903 99.597 9.21453 99.597 13.1181V13.1673C99.597 17.1192 102.616 20.2613 106.667 20.2613C109.318 20.2865 110.889 19.3532 112.313 17.8314ZM125.25 20.0655V17.3653H117.762V14.4682H124.268V11.768H117.762V8.96943H125.152V6.26923H114.768V20.0414H125.25V20.0655Z" fill="white"/>
</svg>

<svg xmlns="http://www.w3.org/2000/svg" width="126" height="26" fill="none"><path d="M5.921 13.167L3.099 15.99.25 13.167l2.848-2.848 2.823 2.848zm6.898-6.898l4.86 4.86 2.849-2.847L12.819.599 5.11 8.307l2.849 2.847 4.86-4.885zm9.721 4.05l-2.823 2.848 2.848 2.848 2.847-2.848-2.872-2.848zm-9.721 9.746l-4.86-4.885-2.849 2.848 7.709 7.708 7.709-7.709-2.849-2.847-4.86 4.885zm0-4.074l2.848-2.849-2.848-2.822-2.848 2.847 2.848 2.823v.001zm29.949.293v-.048c0-1.841-.982-2.774-2.578-3.388.981-.539 1.816-1.424 1.816-2.97v-.048c0-2.161-1.743-3.56-4.541-3.56h-6.407v13.772h6.555c3.117.024 5.155-1.253 5.155-3.756v-.001zm-3.781-5.891c0 1.031-.835 1.447-2.185 1.447h-2.798V8.92h2.995c1.277 0 1.988.515 1.988 1.424v.049zm.761 5.499c0 1.031-.81 1.498-2.137 1.498h-3.607V14.37h3.51c1.547 0 2.234.566 2.234 1.498v.025zm9.377 4.173V6.269h-3.044v13.772h3.044v.024zm16.301 0V6.269h-2.996v8.494l-6.456-8.494h-2.799v13.772h2.996v-8.739l6.677 8.764h2.576.001zm16.79 0l-5.915-13.87h-2.798l-5.917 13.87h3.118l1.252-3.093h5.818l1.251 3.093h3.192-.002zm-5.523-5.769h-3.657l1.841-4.467 1.816 4.467zm19.983 5.769V6.269h-2.995v8.494l-6.457-8.494h-2.798v13.772h2.995v-8.739l6.677 8.764h2.577.001zm15.637-2.234l-1.939-1.939c-1.081.981-2.038 1.619-3.634 1.619-2.356 0-4.001-1.964-4.001-4.321v-.073c0-2.357 1.669-4.295 4.001-4.295 1.375 0 2.456.589 3.535 1.546l1.939-2.234c-1.276-1.252-2.823-2.136-5.424-2.136-4.222 0-7.193 3.215-7.193 7.119v.049c0 3.952 3.019 7.094 7.07 7.094 2.651.025 4.222-.908 5.646-2.43zm12.937 2.234v-2.7h-7.488v-2.897h6.506v-2.7h-6.506V8.969h7.39v-2.7h-10.384v13.772h10.482v.024z" fill="#000"/></svg>
